packages/assets/static/images/icons/bold/elevator--bold.svg

<svg width="24" height="24" viewBox="0 0 24 24" xmlns="http://www.w3.org/2000/svg">
<path d="M22.1255 22.0019H20.9555V9.40283C20.9555 8.57596 20.2824 7.90283 19.4555 7.90283H4.64299C3.81611 7.90283 3.14299 8.57596 3.14299 9.40283V22.0028H1.87549C1.46111 22.0028 1.12549 22.3385 1.12549 22.7528C1.12549 23.1672 1.46111 23.5028 1.87549 23.5028H22.1255C22.5399 23.5028 22.8755 23.1672 22.8755 22.7528C22.8755 22.3385 22.5399 22.0019 22.1255 22.0019ZM11.2992 22.0019H7.59611V12.1853H11.2992V22.0019ZM16.5024 22.0019H12.7992V12.1853H16.5024V22.0019ZM19.4555 22.0019H18.0024V11.4353C18.0024 11.021 17.6667 10.6853 17.2524 10.6853H6.84611C6.43174 10.6853 6.09611 11.021 6.09611 11.4353V22.0019H4.64299V9.40283H19.4555V22.0019Z"/>
<path d="M6.51986 4.10596L7.50799 3.11783V6.13564C7.50799 6.55002 7.84361 6.88564 8.25799 6.88564C8.67236 6.88564 9.00799 6.55002 9.00799 6.13564V3.11783L9.99611 4.10596C10.1424 4.25221 10.3346 4.32533 10.5267 4.32533C10.7189 4.32533 10.9102 4.25221 11.0574 4.10596C11.3499 3.81346 11.3499 3.33814 11.0574 3.04564L8.78861 0.776895C8.7708 0.759082 8.75299 0.743145 8.73424 0.727207C8.73049 0.723457 8.7258 0.720645 8.72205 0.717832C8.70705 0.705645 8.69205 0.694395 8.67611 0.683145C8.67236 0.680332 8.66768 0.678457 8.66393 0.675644C8.64705 0.665332 8.63018 0.65502 8.6133 0.645645C8.61049 0.64377 8.60674 0.642832 8.60393 0.640957C8.58518 0.631582 8.56643 0.622207 8.54674 0.61377C8.54486 0.61377 8.54299 0.611895 8.54018 0.611895C8.51955 0.603457 8.49893 0.595957 8.47736 0.589395C8.47549 0.589395 8.47268 0.588457 8.4708 0.58752C8.45018 0.580957 8.42861 0.575332 8.40705 0.571582C8.40143 0.570645 8.39486 0.569707 8.38924 0.56877C8.37143 0.565957 8.35268 0.562207 8.33486 0.560332C8.31049 0.55752 8.28518 0.556582 8.25986 0.556582C8.23455 0.556582 8.21018 0.55752 8.18486 0.560332C8.16611 0.562207 8.1483 0.56502 8.13049 0.56877C8.12486 0.569707 8.1183 0.570645 8.11268 0.571582C8.09111 0.57627 8.06955 0.581895 8.04893 0.58752C8.04705 0.58752 8.04424 0.588457 8.04236 0.589395C8.0208 0.595957 8.00018 0.603457 7.97955 0.611895C7.97768 0.611895 7.9758 0.61377 7.97299 0.61377C7.9533 0.622207 7.93455 0.631582 7.9158 0.640957C7.91299 0.642832 7.90924 0.64377 7.90643 0.645645C7.88861 0.65502 7.87174 0.665332 7.8558 0.675644C7.85205 0.678457 7.84736 0.680332 7.84361 0.683145C7.82768 0.693457 7.81267 0.705645 7.79768 0.717832C7.79393 0.720645 7.78924 0.724395 7.78549 0.727207C7.76674 0.743145 7.74799 0.759082 7.73111 0.776895L5.46236 3.04564C5.16986 3.33814 5.16986 3.81346 5.46236 4.10596C5.75486 4.39846 6.23018 4.39846 6.52268 4.10596H6.51986Z"/>
<path d="M14.8561 6.66439C14.8739 6.68221 14.8927 6.69908 14.9114 6.71408C14.9199 6.72064 14.9283 6.72721 14.9377 6.73377C14.9489 6.74221 14.9592 6.75064 14.9705 6.75814C14.9808 6.76564 14.9921 6.77127 15.0033 6.77783C15.0136 6.78346 15.023 6.79002 15.0333 6.79564C15.0446 6.80127 15.0558 6.8069 15.068 6.81252C15.0783 6.81721 15.0886 6.82283 15.0999 6.82752C15.1111 6.83221 15.1224 6.83596 15.1346 6.83971C15.1458 6.84346 15.158 6.84814 15.1692 6.85189C15.1805 6.85564 15.1927 6.85752 15.2039 6.86127C15.2161 6.86408 15.2283 6.86783 15.2405 6.87064C15.2536 6.87346 15.2667 6.87439 15.2808 6.87721C15.2921 6.87908 15.3024 6.88096 15.3136 6.88189C15.338 6.88471 15.3633 6.88564 15.3877 6.88564C15.4121 6.88564 15.4374 6.88471 15.4617 6.88189C15.473 6.88096 15.4842 6.87908 15.4955 6.87721C15.5086 6.87533 15.5217 6.87346 15.5349 6.87158C15.548 6.86877 15.5602 6.86502 15.5733 6.86221C15.5846 6.8594 15.5949 6.85752 15.6061 6.85377C15.6183 6.85002 15.6314 6.84533 15.6436 6.84064C15.6539 6.83689 15.6652 6.83314 15.6755 6.82846C15.6867 6.82377 15.698 6.81814 15.7092 6.81252C15.7205 6.80783 15.7308 6.80221 15.7421 6.79658C15.7533 6.79096 15.7636 6.78346 15.7749 6.77783C15.7852 6.77127 15.7955 6.76565 15.8058 6.75908C15.818 6.75064 15.8292 6.74221 15.8414 6.73283C15.8489 6.72721 15.8574 6.72158 15.8649 6.71502C15.8846 6.69908 15.9024 6.68221 15.9202 6.66439L18.1889 4.39564C18.4814 4.10314 18.4814 3.62783 18.1889 3.33533C17.8964 3.04283 17.4211 3.04283 17.1286 3.33533L16.1405 4.32346V1.24658C16.1405 0.832207 15.8049 0.496582 15.3905 0.496582C14.9761 0.496582 14.6405 0.832207 14.6405 1.24658V4.32439L13.6524 3.33627C13.3599 3.04377 12.8846 3.04377 12.5921 3.33627C12.2996 3.62877 12.2996 4.10408 12.5921 4.39658L14.8608 6.66533L14.8561 6.66439Z"/>
</svg>

<svg viewBox="0 0 24 24" xmlns="http://www.w3.org/2000/svg" aria-hidden="true" fill="currentColor"><path d="M22.126 22.002h-1.17v-12.6c0-.826-.674-1.5-1.5-1.5H4.643c-.827 0-1.5.674-1.5 1.5v12.6H1.875a.75.75 0 1 0 0 1.5h20.25a.75.75 0 1 0 0-1.5m-10.827 0H7.596v-9.817H11.3zm5.203 0H12.8v-9.817h3.703zm2.954 0h-1.454V11.435a.75.75 0 0 0-.75-.75H6.846a.75.75 0 0 0-.75.75v10.567H4.643v-12.6h14.813zM6.52 4.106l.988-.988v3.018a.75.75 0 1 0 1.5 0V3.118l.988.988a.75.75 0 0 0 1.061 0 .75.75 0 0 0 0-1.06L8.79.776 8.734.728l-.012-.01-.046-.034-.012-.007-.05-.03-.01-.005-.057-.027L8.54.612a1 1 0 0 0-.133-.04L8.389.569 8.335.56A.7.7 0 0 0 8.13.57l-.017.003-.07.017-.063.023-.007.002q-.03.013-.057.027l-.01.005-.05.03q-.007.003-.012.007l-.046.035-.013.01q-.028.022-.054.049L5.462 3.046a.75.75 0 0 0 1.06 1.06zm8.336 2.558a1 1 0 0 0 .055.05l.027.02q.015.013.032.024.016.01.033.02l.03.018q.018.007.035.017l.032.015.035.012.034.012.035.01.037.009.04.006.033.005a.7.7 0 0 0 .148 0l.034-.005.039-.005.038-.01q.017-.003.033-.008l.038-.013.031-.013.034-.015.033-.016.033-.02.03-.018.036-.026.024-.018.055-.05 2.269-2.27a.75.75 0 0 0-1.06-1.06l-.989.988V1.247a.75.75 0 1 0-1.5 0v3.077l-.988-.988a.75.75 0 0 0-1.06 1.06l2.269 2.27z"/></svg>
